X: 28969
T: Nantwich Fair
R: jig
M: 6/8
K: Dmajor
d|"D"d2A A2d|d2A A2e|"D"fgf efd|"A"(e2A)A3|
"G"B3 BAG|"D"A3 AGF|"G"GAG "D"FED|"A"E3E2:|
|:A|"A"(A2E) EFG|"D"F2E D2d|"D7"(d2A) AB=c|"G"B3 B2f|
"Em"g2f e2d|"A"(cd)eA2A|"G"Bcd "A"ecA|"D"d3 d2:|

